src/extras-openmoji/technology/E1C3.svg

<svg id="emoji" viewBox="0 0 72 72" xmlns="http://www.w3.org/2000/svg">
  <g id="grid">
    <path fill="#b3b3b3" d="M68,4V68H4V4H68m4-4H0V72H72V0Z"/>
    <path fill="none" stroke="#00a5ff" stroke-miterlimit="10" stroke-width="0.1" d="M12.923,10.9583H59.0769A1.9231,1.9231,0,0,1,61,12.8814V59.0352a1.9231,1.9231,0,0,1-1.9231,1.9231H12.9231A1.9231,1.9231,0,0,1,11,59.0352V12.8813A1.923,1.923,0,0,1,12.923,10.9583Z"/>
    <rect x="16" y="4" rx="2.2537" width="40" height="64" fill="none" stroke="#00a5ff" stroke-miterlimit="10" stroke-width="0.1"/>
    <rect x="16" y="4" rx="2.2537" width="40" height="64" transform="translate(72) rotate(90)" fill="none" stroke="#00a5ff" stroke-miterlimit="10" stroke-width="0.1"/>
    <circle cx="36" cy="36" r="29" fill="none" stroke="#00a5ff" stroke-miterlimit="10" stroke-width="0.1"/>
  </g>
  <g id="color">
    <polyline fill="#9B9B9A" stroke="none" points="39.9375,46.8438 57.9497,34.3934 63.6066,40.0503 51.0938,58.0625"/>
    <path fill="#D0CFCE" stroke="none" d="M51.5385,60C49.7175,51.9868,42.5643,46,34,46s-15.7175,5.9868-17.5385,14H51.5385z"/>
  </g>
  <g id="hair"/>
  <g id="skin"/>
  <g id="skin-shadow"/>
  <g id="line">
    <line x1="10" x2="58" y1="60" y2="60" fill="none" stroke="#000000" stroke-linecap="round" stroke-miterlimit="10" stroke-width="2"/>
    <path fill="none" stroke="#000000" stroke-linecap="round" stroke-miterlimit="10" stroke-width="2" d="M51.5385,60 C49.7175,51.9868,42.5643,46,34,46s-15.7175,5.9868-17.5385,14H51.5385z"/>
    <polyline fill="none" stroke="#000000" stroke-linecap="round" stroke-linejoin="round" stroke-miterlimit="10" stroke-width="2" points="39.9375,46.8438 57.9497,34.3934 63.6066,40.0503 51.0938,58.0625"/>
  </g>
</svg>

<svg viewBox="0 0 72 72" xmlns="http://www.w3.org/2000/svg"><path fill="#b3b3b3" d="M68 4v64H4V4h64m4-4H0v72h72V0z"/><path fill="none" stroke="#00a5ff" stroke-miterlimit="10" stroke-width=".1" d="M12.923 10.958h46.154A1.923 1.923 0 0161 12.881v46.154a1.923 1.923 0 01-1.923 1.923H12.923A1.923 1.923 0 0111 59.035V12.881a1.923 1.923 0 011.923-1.923z"/><rect x="16" y="4" rx="2.254" width="40" height="64" fill="none" stroke="#00a5ff" stroke-miterlimit="10" stroke-width=".1"/><rect x="16" y="4" rx="2.254" width="40" height="64" transform="rotate(90 36 36)" fill="none" stroke="#00a5ff" stroke-miterlimit="10" stroke-width=".1"/><circle cx="36" cy="36" r="29" fill="none" stroke="#00a5ff" stroke-miterlimit="10" stroke-width=".1"/><g stroke-linecap="round" stroke-miterlimit="10" stroke-width="6" stroke="#fff" fill="none" stroke-linejoin="round"><path d="M10 60h48m-6.462 0C49.718 51.987 42.564 46 34 46s-15.717 5.987-17.538 14h35.076z"/><path d="M39.938 46.844l18.012-12.45 5.657 5.656-12.513 18.013"/></g><path fill="#9B9B9A" d="M39.938 46.844l18.012-12.45 5.657 5.656-12.513 18.013"/><path fill="#D0CFCE" d="M51.538 60C49.718 51.987 42.564 46 34 46s-15.717 5.987-17.538 14h35.076z"/><g fill="none" stroke="#000" stroke-linecap="round" stroke-miterlimit="10" stroke-width="2"><path d="M10 60h48m-6.462 0C49.718 51.987 42.564 46 34 46s-15.717 5.987-17.538 14h35.076z"/><path stroke-linejoin="round" d="M39.938 46.844l18.012-12.45 5.657 5.656-12.513 18.013"/></g></svg>
